X:1
T:Sandansko horo
R:sandansko horo
S:Sylvain Barou on Youtube
H:See also #2
O:Bulgaria
O:Macedonia
Z:id:hn-sandanskohoro-1
M:22/16
L:1/16
Q:2/16=180
K:Em
E2B2A2 B2A GAAGBA A2G GFFE |1 EFG2GF A2G GFFEFD E2D EFGA :|
[2 EFG2GF A2G GFFEFD E2B E2E2 ||
|: EFG2GF A2G F2FEFG A2B AGFE | EFG2GF A2G F2FEFD E2B E2E2 :|
|: e2b2a2 b2a gaagba a2g gffe |1 efg2gf a2g gffefd e2d efga :|
[2 efg2gf a2g gffefd e2B e2e2 ||
|: efg2gf a2g f2fefg a2b agfe | efg2gf a2g f2fefd e2B e2e2 :|
|: GAAGBE A2G GFFEEF G2E GFFE | GAAGBE A2G GFFEFD E2B E2E2 :|
|: EFFDE2 F2D EFGAF2 E3 BGFE | EFFDE2 F2D EFGAF2 E3 E2E2 :|

